!!!COM: Mozart, Wolfgang Amadeus
!!!OTL: String Quartet No. 20 in D Major ("Hoffmeister")
!!!OMD: Adagio
!!!OMV: 3
!!!SCT1: K<sup>1</sup> 499
!!!SCA: Chronologisch-thematisches Verzeichnis sämtlicher Tonwerke Wolfgang Amade Mozarts (L. von Köchel; 1862, 2/1905, 3/1937, 1947)
!!!SCT2: K<sup>6</sup> 499
!!!YOR: Breitkopf & Härtel Edition
!!!ENC: Frances Bennion
!!!CDT: 1756/1/27/-1791/12/5/
!!!OCY: Österreich
!!!YEC: Copyright (c) 1994, 2000 Center for Computer Assisted Research in the Humanities
!!!YEM: Rights to all derivative editions reserved.
!!!YEM: Refer to licensing agreement for further details.
!!!YEN: United States of America
**kern	**kern	**kern	**kern
*k[f#]	*k[f#]	*k[f#]	*k[f#]
*G:	*G:	*G:	*G:
*clefC	*clefF	*clefG	*clefG
*M3/4	*M3/4	*M3/4	*M3/4
4G	4g	4b	4dd
2r	2r	8g	8b
.	.	16.r	16.r
.	.	32g	32b
.	.	8.b	8.dd
.	.	16g	16b
=2	=2	=2	=2
4C	4e	8.a	8.cc
.	.	64b	64dd
.	.	64a	64cc
.	.	64g#	64b
.	.	64a	64cc
2r	4..r	8cc	8ee
.	.	16.r	16.r
.	.	32A	32e
.	.	8.e	8.cc
.	32r	16c	16a
.	32e	.	.
=3	=3	=3	=3
8..r	[2d	4..B	4..g
32C#	.	.	.
[2D	.	.	.
.	.	16A	16f#
.	8.d]	8.cc	8.ee
.	16F#	16b	16dd
=4	=4	=4	=4
8..D]	4.f#	4.a	4..cc
32d	.	.	.
4.d#	.	.	.
.	4f#	4a	.
.	.	.	16b
.	.	.	16a#
.	.	.	16b
8d#	8f#	8a	16cc
.	.	.	16b
=5	=5	=5	=5
4e	[2g	4g	8.b
.	.	.	16ff
4d	.	4b	4ff
4r	4g_	4r	16r
.	.	.	16ff
.	.	.	16aa
.	.	.	16ff
=6	=6	=6	=6
8r	2.g_	4b	4dd#
8c	.	.	.
8c	.	[4cc	[6..ee
8c	.	.	.
8c	.	16cc]	.
.	.	.	48ee]
.	.	16cc	16ee
8c	.	16ee	16gg
.	.	16cc	16ee
=7	=7	=7	=7
8G	2.g]	16b	[6..dd
.	.	16g	.
8G	.	16d	.
.	.	16c	.
8G	.	16B	.
.	.	.	48dd]
.	.	16d	32ee
.	.	.	32dd
8G	.	16g	32cc
.	.	.	32b
.	.	16B	32a
.	.	.	32g
8C	.	16c	32ee
.	.	.	32ff#
.	.	16e	32gg
.	.	.	32ff#
8C	.	16g	32aa
.	.	.	32gg
.	.	16cc	32ff#
.	.	.	32ee
=8	=8	=8	=8
8GG	2.g	16b	16dd
.	.	16dd	16bb
8GG	.	16b	16aa
.	.	16g	16gg
8GG	.	16d	16ff#
.	.	16B	16ff
8GG	.	16G	16ee
.	.	16B	16dd#
8CC	.	16c	32ee
.	.	.	32ff#
.	.	16e	32gg
.	.	.	32ff#
8CC	.	16g	32aa
.	.	.	32gg
.	.	16cc	32ff#
.	.	.	32ee
=9	=9	=9	=9
2.DD	16g	[4b	[6..dd
.	16dd	.	.
.	16b	.	.
.	16g	.	.
.	[4d	16b]	.
.	.	.	48dd]
.	.	16a#	16cc#
.	.	16a	16cc
.	.	16g	16b
.	4d] 4c	4f#	16a
.	.	.	32cc
.	.	.	32b
.	.	.	32dd
.	.	.	32cc
.	.	.	32ee
.	.	.	32dd
=10	=10	=10	=10
4GG	4d 4B	4g	[12..dd
.	.	.	96dd]
.	.	.	32b
.	.	.	32cc
.	.	.	32a
8r	8..r	8..r	8g
8G	.	.	4.r
.	32B	32d	.
8C	16c	16e	.
.	16e	16cc	.
8D	16c	16a	.
.	16A	16f#	.
=11	=11	=11	=11
4B	4d	4.g	4.gg
8G	8B	.	.
16.r	16.r	4g	4gg
32G	32B	.	.
8.B	8.d	.	.
.	.	[8g	[8gg
16G	16B	.	.
=12	=12	=12	=12
8.A	8.c	8g]	8gg]
.	.	4ee	4eee
64B	64d	.	.
64A	64c	.	.
64G#	64B	.	.
64A	64c	.	.
8c	8e	.	.
16.r	16.r	32dd	32ddd
.	.	16.cc	16.ccc
32AA	32E	.	.
8.E	8.c	32b	32bb
.	.	16.a	16.aa
.	.	32cc	32ccc
.	.	16.a	16.aa
16C	16A	.	.
=13	=13	=13	=13
4..BB	4..G	8.dd	8.ddd
.	.	32b	32bb
.	.	32g	32gg
.	.	8d	8dd
.	.	4d	8.dd
16AA	16F#	.	.
8.c	8.e	.	.
.	.	.	16ee-
.	.	8d	16ee
16B	16d	.	16ff
=14	=14	=14	=14
4A	4c	8.d#	8.ff#
.	.	32c#	32ee
.	.	32d#	32ff#
8G	8B	8e	8gg
8G	8B	8e	8gg
8F#	8A	8f#	8aa
8E	8G	8g	8bb
=15	=15	=15	=15
8AA	16e	16g	[6..dd
.	16d#	16f#	.
8A	16e	16g	.
.	16d#	16f#	.
8A	8e	8g	.
.	.	.	48dd]
.	.	.	16cc#
8A	8r	8r	16ff#
.	.	.	16ee
8A	8e	8g	16dd
.	.	.	16cc#
8A	8r	8r	16gg
.	.	.	16ff#
=16	=16	=16	=16
8AA	16f#	16a	[6..ee
.	16e#	16g#	.
8A	16f#	16a	.
.	16e#	16g#	.
8A	8f#	8a	.
.	.	.	48ee]
.	.	.	16dd
8A	8r	8r	16gg
.	.	.	16ff#
8A	8f#	8a	16ee
.	.	.	16dd
8A	8r	8r	16aa
.	.	.	16gg
=17	=17	=17	=17
8AA	16c#	16g	[6..ff#
.	16d	16f#	.
8A	16c#	16g	.
.	16d	16f#	.
8A	8c#	8g	.
.	.	.	48ff#]
.	.	.	16ee
8A	8r	8r	16aa
.	.	.	16gg
8A	8g	8cc#	16ff#
.	.	.	16ee
8A	8r	8r	16bb
.	.	.	16aa
=18	=18	=18	=18
8AA	16a	16dd	[6..gg
.	16b-	16cc#	.
8A	16a	16dd	.
.	16b-	16cc#	.
8A	8a	8dd	.
.	.	.	48gg]
.	.	.	16ff#
8A	8r	8r	16bb
.	.	.	16aa
8A	8a	8dd	16gg
.	.	.	16ff#
8A	8r	8r	16ccc#
.	.	.	16bb
=19	=19	=19	=19
8AA	16f	16dd	[6..aa
.	16e	16cc#	.
8A	16f	16dd	.
.	16e	16cc#	.
8A	8f	8dd	.
.	.	.	48aa]
.	.	.	16gg#
8A	8r	8r	16ccc#
.	.	.	16bb
8A	8b	8dd	16aa
.	.	.	16gg#
8A	8r	8r	16ddd
.	.	.	16ccc#
=20	=20	=20	=20
[4A	4e	4cc#	16bb
.	.	.	16aa
.	.	.	16aa
.	.	.	16aa
16A]	2r	2r	16gg#
16G#	.	.	16aa
16B	.	.	16aa
16A	.	.	16aa
16G	.	.	16bb
16F#	.	.	16aa
16E	.	.	16aa
16D	.	.	16aa
=21	=21	=21	=21
8C#	[4e	[4gg	32aa
.	.	.	32ccc#
.	.	.	32eee
.	.	.	32ccc#
8E	.	.	16aa
.	.	.	16aa
8AA	16e]	16gg]	4..aa
.	16d#	16ff#	.
4.r	16f#	16aa	.
.	16e	16gg	.
.	16a	16ff#	.
.	16g	16ee	.
.	16f#	16dd	.
.	16e	16cc#	16aa
=22	=22	=22	=22
[4A	8f#	8dd	16bb
.	.	.	16aa
.	16cc#	16ee	16aa
.	32b	32dd	16aa
.	32cc#	32ee	.
16A]	8dd	8ff#	16gg#
16G#	.	.	16aa
16B	4.r	4.r	16aa
16A	.	.	16aa
16G	.	.	16bb
16F#	.	.	16aa
16E	.	.	16aa
16D	.	.	16aa
=23	=23	=23	=23
8C#	[4e	[4gg	32aa
.	.	.	32ccc#
.	.	.	32eee
.	.	.	32ccc#
8E	.	.	16aa
.	.	.	16aa
8AA	16e]	16gg]	4..aa
.	16d#	16ff#	.
4.r	16f#	16aa	.
.	16e	16gg	.
.	16a	16ff#	.
.	16g	16ee	.
.	16f#	16dd	.
.	16e	16cc#	16aa
=24	=24	=24	=24
8D	4f#	4dd	16aa
.	.	.	16ddd
8D	.	.	16ddd
.	.	.	16ddd
8D	4a	4cc	16ddd
.	.	.	16ff#
8D	.	.	16ff#
.	.	.	16ff#
8D	4g	4b	16ff#
.	.	.	16bb
8D	.	.	16bb
.	.	.	16bb
=25	=25	=25	=25
8D	4c#	8.gg	16bb
.	.	.	16ee
8D	.	.	16ee
.	.	16ee	16ee
8D	4e	4cc#	16ee
.	.	.	16gg
8D	.	.	16gg
.	.	.	16gg
8D	4A	4dd	16gg
.	.	.	16ff#
8D	.	.	16ff#
.	.	.	16ff#
=26	=26	=26	=26
8G	16r	16r	16ff#
.	16g	16b	16ee
8r	16g	16b	16ee
.	16g	16b	16ee
8A	16g	16b	16ee
.	16f#	16a	16dd
8r	16f#	16a	16dd
.	16f#	16a	16dd
8AA	16f#	16a	16dd
.	16e	16g	16cc#
8r	16e	16g	16cc#
.	16e	16g	16cc#
=27	=27	=27	=27
16BB	4d	4f#	4.dd
16B	.	.	.
16B	.	.	.
16B	.	.	.
16B	4e	[2g	.
16E	.	.	.
16E	.	.	[12..cc#
16E	.	.	.
16E	4B	.	.
.	.	.	96cc#]
.	.	.	32b
16G	.	.	32dd
.	.	.	32cc#
16G	.	.	32ee
.	.	.	32dd
16G	.	.	32cc#
.	.	.	32b
=28	=28	=28	=28
16G	4e	4g]	4a
16C#	.	.	.
16C#	.	.	.
16C#	.	.	.
16C#	4.A	8e	8.g
16E	.	.	.
16E	.	8c#	.
16E	.	.	32f#
.	.	.	32g
16E	.	8a	[4f#
16D	.	.	.
16D	8d	8a#	.
16D	.	.	.
=29	=29	=29	=29
16GG	16d	16b	16f#]
16G	16B	16d	16e
16G	16B	16d	[12..e
16G	16B	16d	.
8G	8B	8d	.
.	.	.	96e]
.	.	.	32g
.	.	.	32b
.	.	.	32a#
8r	8r	8r	32b
.	.	.	32g
.	.	.	32ee
.	.	.	32dd#
8G	8d	8b	32ee
.	.	.	32b
.	.	.	32gg
.	.	.	32ff#
8r	8r	8r	32gg
.	.	.	32ee
.	.	.	32bb
.	.	.	32aa#
=30	=30	=30	=30
[2G	[2e	[2dd	32bb
.	.	.	32aa#
.	.	.	32bb
.	.	.	32ccc
.	.	.	32ddd
.	.	.	32bb
.	.	.	32aa
.	.	.	32ff#
.	.	.	32gg
.	.	.	32ff#
.	.	.	32gg
.	.	.	32aa
.	.	.	32bb
.	.	.	32gg
.	.	.	32ff#
.	.	.	32dd#
8G]	8e]	8dd]	32ff#
.	.	.	32ee
.	.	.	32gg
.	.	.	32ff#
8B	8g#	8e 8d	32ee
.	.	.	32dd
.	.	.	32cc#
.	.	.	32b
=31	=31	=31	=31
8A	2.a	2.f# 2.d	32b
.	.	.	32a
.	.	.	32g
.	.	.	32f#
8f#	.	.	32g
.	.	.	32a
.	.	.	32b
.	.	.	32cc#
8d	.	.	32dd
.	.	.	64dd
.	.	.	64cc#
.	.	.	32dd
.	.	.	32ee
8A	.	.	32ff#
.	.	.	64ff#
.	.	.	64ee
.	.	.	32ff#
.	.	.	32gg
8F#	.	.	16aa
.	.	.	16bb
8D	.	.	16ccc#
.	.	.	16ddd
=32	=32	=32	=32
8AA	16r	16r	32aa
.	.	.	32gg
.	16f#	16dd	32ff#
.	.	.	32gg
8AA	16f#	16dd	32aa
.	.	.	32bb
.	16f#	16dd	32ccc#
.	.	.	32ddd
8AA	16g	16dd	2ee
.	16g	16dd	.
8AA	16g	16dd	.
.	16g	16dd	.
8AA	16g	16cc#	.
.	16g	16cc#	.
8AA	16g	16cc#	.
.	16g	16cc#	.
=33	=33	=33	=33
4D	4f#	4dd	4dd
4r	4r	4r	4r
8GG	8G	8gg 8b 8d	8bb 8dd 8g
16r	16r	16r	16r
16G	16d	16gg	16bb
=34	=34	=34	=34
4F#	4dd	4aa	4ccc
8G	8d	8gg	8bb
4.r	4.r	4.r	16r
.	.	.	16b
.	.	.	16aa
.	.	.	16gg
.	.	.	16ff#
.	.	.	16ee
=35	=35	=35	=35
8r	4.e	4.g	[4dd
8AA	.	.	.
8A	.	.	32dd]
.	.	.	32cc#
.	.	.	32ee
.	.	.	32dd#
8A	4c#	4e	32ff#
.	.	.	32ee
.	.	.	32gg
.	.	.	32ff#
8A	.	.	32aa
.	.	.	32gg
.	.	.	32bb
.	.	.	32aa#
8A	8e	8cc#	32ccc#
.	.	.	32bb
.	.	.	32aa
.	.	.	32gg
=36	=36	=36	=36
[4D	4g	4cc#	8ee
.	.	.	8ee#
8D]	8f#	8dd	8ff#
8r	8r	8r	8r
8GG	8G	8gg 8b 8d	8bb 8dd 8g
16r	16r	16r	16r
16G	16d	16gg	16bb
=37	=37	=37	=37
4F#	4dd	4aa	8.ddd
.	.	.	16ccc
8G	8d	8gg	24bb
.	.	.	24b
.	.	.	24cc
4.r	4.r	4.r	24cc#
.	.	.	24dd
.	.	.	24dd#
.	.	.	32ee
.	.	.	32ff
.	.	.	32ff#
.	.	.	32gg
.	.	.	32gg#
.	.	.	32aa
.	.	.	32aa#
.	.	.	32bb
=38	=38	=38	=38
8r	[8e	4.g	[4dd
8AA	4e]	.	.
8A	.	.	32dd]
.	.	.	32cc#
.	.	.	32ee
.	.	.	32dd#
8A	8c#	4e	32ff#
.	.	.	32ee
.	.	.	32gg
.	.	.	32ff#
8A	4e	.	32aa
.	.	.	32gg
.	.	.	32bb
.	.	.	32gg
8A	.	8g	32ff#
.	.	.	32ee
.	.	.	32dd
.	.	.	32cc#
=39	=39	=39	=39
[4D	4g	4cc#	4ee
8D]	8f#	8dd	8dd
4.r	4.r	8g	8b
.	.	8f#	8a
.	.	8e 8c#	8g 8A
=40	=40	=40	=40
4F#	4A	4d	4f# 4d
8D	8F#	2r	2r
16.r	16.r	.	.
32D	32F#	.	.
8.F#	8.A	.	.
16D	16F#	.	.
=41	=41	=41	=41
8.G	8.B	4b	4dd
64A	64c	.	.
64G	64B	.	.
64F#	64A	.	.
64G	64B	.	.
8B	8d	8g	8b
4.r	4.r	16.r	16.r
.	.	32g	32b
.	.	8.b	8.dd
.	.	16g	16b
=42	=42	=42	=42
4E	4G	8.cc#	8.ee
.	.	64dd	64ff#
.	.	64cc#	64ee
.	.	64b	64dd
.	.	64cc#	64ee
8C#	8E	8ee	8gg
16.r	16.r	4.r	4.r
32C#	32E	.	.
8.E	8.G	.	.
16C#	16E	.	.
=43	=43	=43	=43
8.F#	8.A	4f#	4a
64G	64B	.	.
64F#	64A	.	.
64E	64G	.	.
64F#	64A	.	.
8A	8c	8d#	8f#
4.r	4.r	16.r	16.r
.	.	32d#	32f#
.	.	8.f#	8.a
.	.	16d#	16f#
=44	=44	=44	=44
8G	4B	2e	16b
.	.	.	16bb
8G	.	.	16bb
.	.	.	16bb
8F#	4c#	.	16bb
.	.	.	16aa#
8F#	.	.	16aa#
.	.	.	16aa#
8C	4e	4a#	16aa#
.	.	.	16ee
8C	.	.	16ee
.	.	.	16ee
=45	=45	=45	=45
8BB	4f#	8a	16dd#
.	.	.	16aa
8BB	.	8dd#	16aa
.	.	.	16aa
8E	4B	8ee	16aa
.	.	.	16gg#
8E	.	4b	16gg#
.	.	.	16gg#
8E	4e	.	16gg#
.	.	.	16gg
8E	.	8ee	16gg
.	.	.	16gg
=46	=46	=46	=46
8A	16r	16r	16gg
.	16a	16cc	16ff#
8r	16a	16cc	16ff#
.	16a	16cc	16ff#
8B	16a	16cc	16ff#
.	16g	16b	16ee
8r	16g	16b	16ee
.	16g	16b	16ee
8BB	16g	16b	16ee
.	16f#	16a	16dd#
8r	16f#	16a	16dd#
.	16f#	16a	16dd#
=47	=47	=47	=47
16C	4e	4g	4.ee
16c	.	.	.
16c	.	.	.
16c	.	.	.
16c	4f#	4a	.
16F#	.	.	.
16F#	.	.	8dd#
16F#	.	.	.
16F#	4d	4g#	8.b
16B	.	.	.
16B	.	.	.
16B	.	.	16cc#
=48	=48	=48	=48
16B	[4e	[4g	8dd
16E	.	.	.
16E	.	.	8cc#
16E	.	.	.
16E	16e]	16g]	4cc
16A	16d#	16f#	.
16A	16d#	16f#	.
16A	16d#	16f#	.
16A	16d#	16f#	4b
16G	16e	16g	.
16G	16e	16g	.
16G	16e	16g	.
=49	=49	=49	=49
8A	16g	8c	16b
.	16f#	.	16a
8r	16f#	8r	16a
.	16f#	.	16a
8B	16f#	8B	16a
.	16e	.	16g
8r	16e	8r	16g
.	16e	.	16g
8BB	16e	4G	16g
.	16d	.	16f
8r	16d	.	16f
.	16d	.	16f
=50	=50	=50	=50
8C	8d	16G	8f
.	.	16g	.
8C	8c	16g	[6..e
.	.	16g	.
8C	8r	16g	.
.	.	16B-	.
8C	8G	16B-	.
.	.	.	48e]
.	.	16B-	16f#
8C#	8E	16B-	8g
.	.	16A	.
8C#	[8e	16A	8g
.	.	16A	.
=51	=51	=51	=51
8D	8e]	16A	8g
.	.	16a	.
8D	8d	16a	[6..f#
.	.	16a	.
8D	8r	16a	.
.	.	16c	.
8D	8A	16c	.
.	.	.	48f#]
.	.	16c	16g
8D#	8F#	16c	8a
.	.	16B	.
8D#	[8f#	16B	8a
.	.	16B	.
=52	=52	=52	=52
8E	8f#]	16B	8a
.	.	16b	.
8E	8e	16b	[6..g
.	.	16b	.
8E	8r	16b	.
.	.	16d	.
8E	8B	16d	.
.	.	.	48g]
.	.	16d	16a
8E	8G	16d	8b
.	.	16c	.
8E	8g	16c	8b
.	.	16c	.
=53	=53	=53	=53
16F#	8.f#	16c	8b
16G	.	16cc	.
16F#	.	16cc	4a
16E	16g	16cc	.
16D	16f#	8cc	.
16E	16g	.	.
16D	16f#	8f#	8a
16C	16e	.	.
16BB	16d	8g	8b
16C	16e	.	.
16BB	16d	8a	8cc
16AA	16c	.	.
=54	=54	=54	=54
4GG	4B	4b	4dd
2r	2r	8g	8b
.	.	16.r	16.r
.	.	32g	32b
.	.	16.b	16.dd
.	.	32g	32b
.	.	16.b	16.dd
.	.	32g	32b
=55	=55	=55	=55
4C	4e	8.a	8.cc
.	.	64b	64dd
.	.	64a	64cc
.	.	64g#	64b
.	.	64a	64cc
2r	4..r	8cc	8ee
.	.	16.r	16.r
.	.	32A	32e
.	.	16.f	16.dd
.	.	32e	32cc
.	.	16.d	16.b
.	32r	.	.
.	32e	32c	32a
=56	=56	=56	=56
8..r	[2d	4..B	4..g
32C#	.	.	.
[2D	.	.	.
.	.	16A	16f#
.	8.d]	8.cc	8.ee
.	16F#	16b	16dd
=57	=57	=57	=57
8..D]	4.f#	4.a	4..cc
32d	.	.	.
4.d#	.	.	.
.	4f#	4a	.
.	.	.	16b
.	.	.	16a#
.	.	.	16b
8d#	8f#	8a	16cc
.	.	.	16b
=58	=58	=58	=58
4e	[2g	4g	8.b
.	.	.	16ff
4d	.	4b	4ff
4r	4g_	4r	16r
.	.	.	16ff
.	.	.	16aa
.	.	.	16ff
=59	=59	=59	=59
8r	2.g_	4b	4dd#
8c	.	.	.
8c	.	[4cc	[6..ee
8c	.	.	.
8c	.	16cc]	.
.	.	.	48ee]
.	.	16cc	16ee
8c	.	16ee	16gg
.	.	16cc	16ee
=60	=60	=60	=60
8G	2.g_	16b	[6..dd
.	.	16g	.
8G	.	16d	.
.	.	16c	.
8G	.	16B	.
.	.	.	48dd]
.	.	16d	32ee
.	.	.	32dd
8G	.	16g	32cc
.	.	.	32b
.	.	16B	32a
.	.	.	32g
8C	.	16c	32ee
.	.	.	32ff#
.	.	16e	32gg
.	.	.	32ff#
8C	.	16g	32aa
.	.	.	32gg
.	.	16cc	32ff#
.	.	.	32ee
=61	=61	=61	=61
8GG	2.g_	16b	16dd
.	.	16dd	16bb
8GG	.	16b	16aa
.	.	16g	16gg
8GG	.	16d	16ff#
.	.	16B	16ff
8GG	.	16G	16ee
.	.	16B	16dd#
8CC	.	16c	32ee
.	.	.	32ff#
.	.	16e	32gg
.	.	.	32ff#
8CC	.	16g	32aa
.	.	.	32gg
.	.	16cc	32ff#
.	.	.	32ee
=62	=62	=62	=62
2.DD	16g]	[4b	[6..dd
.	16dd	.	.
.	16b	.	.
.	16g	.	.
.	[4d	16b]	.
.	.	.	48dd]
.	.	16a#	16cc#
.	.	16a	16cc
.	.	16g	16b
.	4d] 4c	4f#	16a
.	.	.	32cc
.	.	.	32b
.	.	.	32dd
.	.	.	32cc
.	.	.	32ee
.	.	.	32dd
=63	=63	=63	=63
4GG	4d 4B	4g	[12..dd
.	.	.	96dd]
.	.	.	32b
.	.	.	32cc
.	.	.	32a
8r	8r	8r	8g
8B	8d	8G	4.r
8c	8e	8g	.
8d	8f	8g	.
=64	=64	=64	=64
4e	4g	4.c	4.cc
8c	8e	.	.
16.r	16.r	4c	4cc
32c	32e	.	.
16.e	16.g	.	.
32c	32e	.	.
16.e	16.g	[8c	[8cc
32c	32e	.	.
=65	=65	=65	=65
8.d	8.f	8c]	8cc]
.	.	8.a	8.aa
64e	64g	.	.
64d	64f	.	.
64c#	64e	.	.
64d	64f	.	.
8f	8a	.	.
.	.	16c#	16cc#
16.r	16.r	16d	16dd
.	.	16c#	16cc#
32D	32A	.	.
32B-	32g	16d	16dd
16.A	16.f	.	.
.	.	16e	16ee
32G	32e	16f	16ff
16.F	16.d	.	.
.	.	16f#	16ff#
=66	=66	=66	=66
4..E	4..c	8.g	8.gg
.	.	32e	32ee
.	.	32c	32cc
.	.	8G	8g
.	.	4G	8.g
16D	16B	.	.
8.f	8.a	.	.
.	.	.	16a-
.	.	8G	16a
16e	16g	.	16b-
=67	=67	=67	=67
4d	4f	4G#	8.b
.	.	.	32a
.	.	.	32b
8c	8e	8A	8cc
8C	8E	8A	8cc
8BB	8D	8B	8dd
8AA	8C	8c	8ee
=68	=68	=68	=68
8DD	16A	16c	[6..g
.	16G#	16B	.
8D	16A	16c	.
.	16G#	16B	.
8D	8A	8c	.
.	.	.	48g]
.	.	.	16f#
8D	8r	8r	16b
.	.	.	16a
8D	8A	8c	16g
.	.	.	16f#
8D	8r	8r	16cc
.	.	.	16b
=69	=69	=69	=69
8DD	16B	16d	[6..a
.	16A#	16c#	.
8D	16B	16d	.
.	16A#	16c#	.
8D	8B	8d	.
.	.	.	48a]
.	.	.	16g
8D	8r	8r	16cc
.	.	.	16b
8D	8B	8d	16a
.	.	.	16g
8D	8r	8r	16dd
.	.	.	16cc
=70	=70	=70	=70
8DD	16c	16f#	[6..b
.	16B	16g	.
8D	16c	16f#	.
.	16B	16g	.
8D	8c	8f#	.
.	.	.	48b]
.	.	.	16a
8D	8r	8r	16dd
.	.	.	16cc
8D	8c	8f#	16b
.	.	.	16a
8D	8r	8r	16ee
.	.	.	16dd
=71	=71	=71	=71
8DD	16d	16g	[6..cc
.	16e-	16f#	.
8D	16d	16g	.
.	16e-	16f#	.
8D	8d	8g	.
.	.	.	48cc]
.	.	.	16b
8D	8r	8r	16ee
.	.	.	16dd
8D	8d	8g	16cc
.	.	.	16b
8D	8r	8r	16ff#
.	.	.	16ee
=72	=72	=72	=72
8DD	16B-	16g	[6..dd
.	16A	16f#	.
8D	16B-	16g	.
.	16A	16f#	.
8D	8B-	8g	.
.	.	.	48dd]
.	.	.	16cc#
8D	8r	8r	16ff#
.	.	.	16ee
8D	8e	8g	16dd
.	.	.	16cc#
8D	8r	8r	16gg
.	.	.	16ff#
=73	=73	=73	=73
[4D	4A	4f#	16ee
.	.	.	16dd
.	.	.	16dd
.	.	.	16dd
16D]	2r	2r	16cc#
16C#	.	.	16dd
16E	.	.	16dd
16D	.	.	16dd
16C	.	.	16ee
16BB	.	.	16dd
16AA	.	.	16dd
16GG	.	.	16dd
=74	=74	=74	=74
8FF#	[4A	[4cc	32dd
.	.	.	32ff#
.	.	.	32aa
.	.	.	32ff#
8AA	.	.	16dd
.	.	.	16dd
8DD	16A]	16cc]	4..dd
.	16G#	16b	.
4.r	16B	16dd	.
.	16A	16cc	.
.	16d	16b	.
.	16c	16a	.
.	16B	16g	.
.	16A	16f#	16ddd
=75	=75	=75	=75
[4d	8B	8g	16eee
.	.	.	16ddd
.	16f#	16a	16ddd
.	32e	32g	16ddd
.	32f#	32a	.
16d]	8g	8b	16ccc#
16c#	.	.	16ddd
16e	4.r	4.r	16ddd
16d	.	.	16ddd
16c	.	.	16eee
16B	.	.	16ddd
16A	.	.	16ddd
16G	.	.	16ddd
=76	=76	=76	=76
8F#	[4a	[4ccc	32ddd
.	.	.	32fff#
.	.	.	32aaa
.	.	.	32fff#
8A	.	.	16ddd
.	.	.	16ddd
8D	16a]	16ccc]	4..ddd
.	16g#	16bb	.
4.r	16b	16ddd	.
.	16a	16ccc	.
.	16dd	16bb	.
.	16cc	16aa	.
.	16b	16gg	.
.	16a	16ff#	16ddd
=77	=77	=77	=77
8GG	4b	4gg	16ddd
.	.	.	16ggg
8G	.	.	16ggg
.	.	.	16ggg
8G	4dd	4ff	16ggg
.	.	.	16bb
8G	.	.	16bb
.	.	.	16bb
8G	[4cc	4ee	16bb
.	.	.	16eee
8G	.	.	16eee
.	.	.	16eee
=78	=78	=78	=78
8G	8.cc]	4ff#	16eee
.	.	.	16aa
8G	.	.	16aa
.	16a	.	16aa
8G	4f#	4ee-	16aa
.	.	.	16ccc
8G	.	.	16ccc
.	.	.	16ccc
8G	4g	4dd	16ccc
.	.	.	16bb
8G	.	.	16bb
.	.	.	16bb
=79	=79	=79	=79
8c	16r	16r	16bb
.	16cc	16ee	16aa
8r	16cc	16ee	16aa
.	16cc	16ee	16aa
8d	16cc	16ee	16aa
.	16b	16dd	16gg
8r	16b	16dd	16gg
.	16b	16dd	16gg
8D	16b	16dd	16gg
.	16a	16cc	16ff#
8r	16a	16cc	16ff#
.	16a	16cc	16ff#
=80	=80	=80	=80
16E	4g	4b	4.gg
16e	.	.	.
16e	.	.	.
16e	.	.	.
16e	4a	[2cc	.
16A	.	.	.
16A	.	.	[12..ff#
16A	.	.	.
16A	4e	.	.
.	.	.	96ff#]
.	.	.	32ee
16c	.	.	32gg
.	.	.	32ff#
16c	.	.	32aa
.	.	.	32gg
16c	.	.	32ff#
.	.	.	32ee
=81	=81	=81	=81
16c	4a	4cc]	4dd
16F#	.	.	.
16F#	.	.	.
16F#	.	.	.
16F#	4.d	8a	8.cc
16A	.	.	.
16A	.	8f#	.
16A	.	.	32b
.	.	.	32cc
16A	.	8dd	[4b
16G	.	.	.
16G	[8g	8dd#	.
16G	.	.	.
=82	=82	=82	=82
16C	16g]	16ee	16b]
16c	16e	16g	16a
16c	16e	16g	[12..a
16c	16e	16g	.
8c	8e	8g	.
.	.	.	96a]
.	.	.	32b
.	.	.	32a
.	.	.	32g#
8r	8r	8r	32a
.	.	.	32b
.	.	.	32cc
.	.	.	32b
8e	8g	8a	32cc
.	.	.	32dd
.	.	.	32ee
.	.	.	32dd
8r	8r	8r	32ff
.	.	.	32ee
.	.	.	32dd
.	.	.	32cc
=83	=83	=83	=83
16D	16g	16ff	16cc
16d	16f	16g	16b
16d	16f	16g	[12..b
16d	16f	16g	.
8d	8f	8g	.
.	.	.	96b]
.	.	.	32cc
.	.	.	32b
.	.	.	32a
8r	8r	8r	32b
.	.	.	32cc
.	.	.	32dd
.	.	.	32cc#
8f	8g	8b	32dd
.	.	.	32ee
.	.	.	32ff
.	.	.	32ee
8r	8r	8r	32gg
.	.	.	32ff
.	.	.	32ee
.	.	.	32dd
=84	=84	=84	=84
16EE	16B	16gg	16dd
16E	16c	16g	16cc
16E	16c	16g	[12..cc
16E	16c	16g	.
8E	8c	8g	.
.	.	.	96cc]
.	.	.	32dd
.	.	.	32cc
.	.	.	32b
8r	8r	8r	32cc
.	.	.	32dd
.	.	.	32ee
.	.	.	32dd#
8G	8e	8cc	32ee
.	.	.	32ff#
.	.	.	32gg
.	.	.	32ff#
8r	8r	8r	32gg
.	.	.	32aa
.	.	.	32bb-
.	.	.	32aa
=85	=85	=85	=85
16E-	16g	16cc#	[4bb-
16EE-	16G	16c#	.
16EE-	16G	16c#	.
16EE-	16G	16c#	.
8EE-	8G	8c#	32bb-]
.	.	.	32aa
.	.	.	32bb-
.	.	.	32aa
8r	8r	8r	32bb-
.	.	.	32ff#
.	.	.	32gg
.	.	.	32aa
8e-	8g	8cc#	32bb-
.	.	.	32aa
.	.	.	32bb-
.	.	.	32aa
8r	8r	8r	32bb-
.	.	.	32ff#
.	.	.	32gg
.	.	.	32aa
=86	=86	=86	=86
16r	[8g	8.dd	[12..bb
16D	.	.	.
8.d	32g]	.	.
.	.	.	96bb]
.	32b	.	32gg
.	32cc	16d	32ff#
.	32a	.	32ccc
.	[8g	8.dd	[12..bb
16D	.	.	.
8.d	32g]	.	.
.	.	.	96bb]
.	32b	.	32gg
.	32cc	16d	32ff#
.	32a	.	32ccc
.	32g	32dd	32bb
.	32d	32b	32gg
16D	32cc	32a	32ff#
.	32a	32f#	32ccc
16d	32g	32dd	32bb
.	32d	32b	32gg
16D	32cc	32a	32ff#
.	32a	32f#	32ccc
=87	=87	=87	=87
8d	8g	8dd	16bb
.	.	.	16bb
2r	2r	2r	16ccc
.	.	.	16ccc#
.	.	.	16ddd
.	.	.	16ff#
.	.	.	16gg
.	.	.	16aa#
.	.	.	16bb
.	.	.	32ee
.	.	.	32dd#
8r	8r	8r	32ff#
.	.	.	32ee
.	.	.	32gg
.	.	.	32ff#
=88	=88	=88	=88
8DD	16r	16r	32aa
.	.	.	32gg
.	16B	16d	32g
.	.	.	32f#
8DD	16B	16g	32a
.	.	.	32g
.	16B	16g	32a
.	.	.	32g#
8DD	16c	16g	2a
.	16c	16g	.
8DD	16c	16g	.
.	16c	16g	.
8DD	16c	16f#	.
.	16c	16f#	.
8DD	16c	16f#	.
.	16c	16f#	.
=89	=89	=89	=89
4GG	4B	4g	4g
4r	4r	4r	4r
8CC	8c 8C	8cc 8e 8G	8ee 8g 8c
16r	16r	16r	16r
16C	16G	16cc	16ee
=90	=90	=90	=90
4BB	4g	4dd	4ff
8C	8G	8cc	8ee
4.r	4.r	4.r	16r
.	.	.	16e
.	.	.	16dd
.	.	.	16cc
.	.	.	16b
.	.	.	16a
=91	=91	=91	=91
8r	4.A	4.c	[4g
8DD	.	.	.
8D	.	.	32g]
.	.	.	32f#
.	.	.	32a
.	.	.	32g#
8D	4F#	4A	32b
.	.	.	32a
.	.	.	32cc
.	.	.	32b
8D	.	.	32dd
.	.	.	32cc
.	.	.	32ee
.	.	.	32dd#
8D	8A	8f#	32ff#
.	.	.	32ee
.	.	.	32dd
.	.	.	32cc
=92	=92	=92	=92
[4GG	4c	4f#	8a
.	.	.	8a#
8GG]	8B	8g	8b
8r	8r	8r	8r
8CC	8c 8C	8cc 8e 8G	8ee 8g 8c
16r	16r	16r	16r
16c	16g	16cc	16ee
=93	=93	=93	=93
4B	4.g	4dd	8.gg
.	.	.	16ff
8c	.	8cc	8ee
4.r	8r	8r	8r
.	8c	8g	8ee
.	16r	16r	16r
.	16c	16g	16ee
=94	=94	=94	=94
16DD	2.B	2.g#	8.gg
16D	.	.	.
16D	.	.	.
16D	.	.	16ff#
16D	.	.	8ff
16GG#	.	.	.
16GG#	.	.	4ff
16GG#	.	.	.
16GG#	.	.	.
16BB	.	.	.
16BB	.	.	[8ff
16BB	.	.	.
=95	=95	=95	=95
16BB	[4B	[4g	16ff]
16DD	.	.	16fff
16DD	.	.	16fff
16DD	.	.	16fff
16DD	16B]	16g]	16fff
16GG	16d	16ff	16bb
16GG	16d	16ff	16bb
16GG	16d	16ff	16bb
16GG	16B	16ff	16ddd
16BB	16g	16dd	16ff
16BB	16g	16dd	16ff
16BB	16g	16dd	16ff
=96	=96	=96	=96
8C	16G	4b	4dd#
.	16g	.	.
8C	16g	.	.
.	16g	.	.
8C	16g	4cc	[4ee
.	16e	.	.
8C	16e	.	.
.	16e	.	.
8C	16e	4r	32ee]
.	.	.	32ff#
.	16c	.	32ee
.	.	.	32dd#
8C	16c	.	32ee
.	.	.	32gg
.	16c	.	32ff#
.	.	.	32aa
=97	=97	=97	=97
8C#	4.B-	16e	[4gg
.	.	16ee	.
8C#	.	16ee	.
.	.	16ee	.
8C#	.	16ee	32gg]
.	.	.	32aa
.	.	16b-	32gg
.	.	.	32ff#
8C#	8G	16b-	32gg
.	.	.	32bb-
.	.	16b-	32aa
.	.	.	32ccc
8C#	8E	16b-	8bb-
.	.	16g	.
8C#	8e	16g	16r
.	.	16g	16bb-
=98	=98	=98	=98
8D	8d	8g	16bb
.	.	.	16ggg
2r	4..r	8.r	16ggg
.	.	.	16ggg
.	.	.	16ggg
.	.	16b	16bb
.	.	16b	16bb
.	.	16dd	16ddd
.	.	16dd	16ddd
.	16G	16g	16gg
8r	16G	16g	16gg
.	16B	16b	16bb
=99	=99	=99	=99
16r	16B	16b	16bb
16D	16d	16dd	16dd
16D	16d	16dd	16dd
16G	16g	16gg	16gg
16G	16g	16gg	16gg
16BB	16B	16b	16b
16BB	16B	16b	16b
16D	16d	16dd	16dd
16D	16d	16dd	16dd
16GG	16G	16g	16g
16BB	16B	16b	16b
16CC#	16C#	16c#	16c#
=100	=100	=100	=100
8DD	16D	16d	[4d
.	16b	16gg	.
8D	16b	16gg	.
.	16b	16gg	.
8D	16b	16gg	32d]
.	.	.	32g
.	16g	16b	32a
.	.	.	32b
4.r	16g	16b	32cc
.	.	.	32dd
.	16b	16dd	32ee
.	.	.	32ff#
.	16b	16dd	32gg
.	.	.	32aa
.	16B	16g	32bb
.	.	.	32ccc
.	16B	16g	32ddd
.	.	.	32eee
.	16d	16b	32fff#
.	.	.	32ggg
=101	=101	=101	=101
16DD	8d	8f#	2.aa
16C	.	.	.
16C	4F#	4d	.
16C	.	.	.
16C	.	.	.
16FF#	.	.	.
16FF#	8A	4d 4c	.
16AA	.	.	.
16AA	8F#	.	.
16DD	.	.	.
16DD	8D	8d 8c	.
16FF#	.	.	.
=102	=102	=102	=102
4GG	16D	16d 16B	4gg
.	16B	16d	.
.	16B	16d	.
.	16B	16d	.
4r	16A#	16c#	4r
.	16B	16d	.
.	16B	16d	.
.	16B	16d	.
4D	4c	4f#	16a
.	.	.	32cc
.	.	.	32b
.	.	.	32dd
.	.	.	32cc
.	.	.	32ee
.	.	.	32dd
=103	=103	=103	=103
8G	16B	16g	[12..dd
.	16B	16d	.
4.r	16B	16d	.
.	.	.	96dd]
.	.	.	32b
.	16B	16d	32cc
.	.	.	32a
.	16A#	16c#	8g
.	16B	16d	.
.	16B	16d	8r
.	16B	16d	.
4D	4F#	4c	32B
.	.	.	32A
.	.	.	32c
.	.	.	32B
.	.	.	32d
.	.	.	32c
.	.	.	32e
.	.	.	32d
=104	=104	=104	=104
8GG	8G	8B	[12..d
4r	4r	4r	.
.	.	.	96d]
.	.	.	32B
.	.	.	32c
.	.	.	32A
.	.	.	8G
8g	8dd	8gg 8b	4.r
8g	8dd	8gg 8b	.
8g	8dd	8gg 8b	.
=105	=105	=105	=105
4g	4dd	4gg 4b	[12..ddd
.	.	.	96ddd]
.	.	.	32bb
.	.	.	32ccc
.	.	.	32aa
4r	2r	2r	8gg
.	.	.	4.r
4r	.	.	.
==	==	==	==
*-	*-	*-	*-
!!!RWG1: This file contains only pitch and duration data.
!!!RWG2: Transposing instruments are not transposed.
!!!RWG3: Spines may have incompatible meters.
!!!RWG4: Durations of rests and tied notes may be interpreted.
!!!RWG: Key is interpreted using the Humdrum key tool.
!!!AFT: stage1
!!!END: 1997/04/15
!!!KEY: 3409787824
!!!EMD: Converted from MuseData to Humdrum Dec 16, 2000, by Andreas Kornstaedt using muse2kern.
!!!EMD: Manual editing by Craig Sapp, Nov 2001
